dist/intermediate-svg/contractsChart.svg

<?xml version="1.0" encoding="utf-8"?><svg width="24" height="24" fill="none" xmlns="http://www.w3.org/2000/svg" viewBox="0 0 24 24"><path stroke="#333" d="M5.5 3.5h13v17h-13zM8 7h8M8 10h8M8 13h2M8 16h2"/><circle cx="14" cy="15" r="2.5" stroke="#0094FF"/><path d="M13 22v-4h2v4l-1-.8-1 .8z" stroke="#0094FF"/></svg>

<?xml version="1.0" encoding="utf-8"?><svg width="24" height="24" fill="none" xmlns="http://www.w3.org/2000/svg" viewBox="0 0 24 24"><path stroke="#333" d="M5.5 3.5H18.5V20.5H5.5zM8 7H16M8 10H16M8 13H10M8 16H10"/><circle cx="14" cy="15" r="2.5" stroke="#0094FF"/><path d="M13 22V18H15V22L14 21.2L13 22Z" stroke="#0094FF"/></svg>
